X: 35783
T: Sally Lennon
R: jig
M: 6/8
K: Gmajor
D|:G2B ~B3|gdB gdB|G2B BAG|AFD AFD|
G2B ~B3|gdB gdB|~B3 GBd|1 cAF G2D:|2 cAF GBd||
|:~g3 b3|~g3 bgd|~f3 a3|fad afd|
gdg bgd|~g3 b2d|~B3 GBd|cAF G3:|

